/* XPM */
static char * maximize_toggled_prelight_xpm[] = {
"22 24 3 1",
" 	c None",
".	c #23231F",
"+	c #BABCCC",
"                      ",
"                      ",
"                      ",
"                      ",
"......................",
"......................",
".....++++++++++++.....",
".....++++++++++++.....",
".....++........++.....",
".....++.++++++.++.....",
".....++.++++++.++.....",
".....++.++..++.++.....",
".....++.++..++.++.....",
".....++.++++++.++.....",
".....++.++++++.++.....",
".....++........++.....",
".....++++++++++++.....",
".....++++++++++++.....",
"......................",
"......................",
"......................",
"......................",
"......................",
"......................"};
